X:1
T:Title
%%score { ( 1 3 4 ) | ( 2 5 ) }
L:1/8
M:4/4
K:Db
V:1 treble nm="Grand Piano"
V:3 treble 
V:4 treble 
V:2 bass 
V:5 bass 
V:1
 z4 z2[Q:1/4=110] [FA]2 | [FA]3 [_F=G] [FB]2 [A,=FA]2 | [A,D]2 [CE]2 [A,DF]2 [DFA]2 | %3
 [DGB]3 [DAc] [DBd][DAc] [DGB]2 | [DFA]6 [A,DF]2 | [EG]3 [DF] [CE]2 [GB]2 | %6
 [FA]2 [EG]2 [DF]2 [Fd]2 | c3 A B2 =G2 | [CA]6 A2 | e3 e d2 c2 | [Fd]2 [GB]2 [FA]2 [DF][EG] | %11
 [FA]3 [GB] [FA]2 [DF]2 | [CE]6 [DF][EG] | [FA]3 [Af] [Ae]2 [Ad]2 | [GB]2 [Bd]2 [Ac]2 B2 | %15
 A3 d d-[Fd] [Gc]2 | [Fd]6 z2 |[M:6/8] .[FA]6 | [Fd]2 F A .G2 | .[EG]6 | %20
[M:11/16] [CA]3/2 z/ [CE][EG][DF]3/2 |[M:1/8] [FA] |[M:3/4] [Fd]2 [Af] [Ae]2 [DAd] | %23
 [DGB]2 [DBd] [DAc]2 [DGB] | [DFA]>[DGB] [DFA][A,FA]- [A,FA]/[A,EG]/[A,DF] | [CE]3 .[CE]3 | %26
 [FA]->[DF-A-] [DFA]2 =G[DFA] | [Fd]2 FA .G2 | [EG]4 z2 |[M:11/16] [CA]3/2 z/ [CE][EG][DF]3/2 | %30
[M:1/8] [FA] |[M:3/4] [Fd]2 [Af] [Ae]2 [Ad] | [Ge]2 [Bd] [Ac]2 B | A2 d[Ed]- [Ed]/[Fd]/[Gc] | %34
[M:9/16] d->[Fd-][Gd-][Fd]3/2 |] %35
V:2
 z4 z2 [D,A,]2 | [D,A,]3 [D,B,] [D,=G,]2 D,2 | F,2 A,2 D,2 D,2 | G,3 G, G,G, G,2 | D,6 D,2 | %5
 [A,,A,]3 [A,,A,] [A,,A,]2 [A,,A,]2 | [B,,A,]2 [C,A,]2 [D,A,]2 [D,A,]2 | %7
 [E,A,E]3 [E,A,C] [E,=G,D]2 [E,B,D]2 | [A,,A,]6[K:treble] [A,CG]2 | %9
 [A,CG]3 [A,CG] [A,DF]2 [A,EG]2 | [D,D]2 [D,D]2 [D,D]2 [D,A,]2 | [D,D]3 [D,D] [D,D]2 [D,A,]2 | %12
 [A,,A,]6 [D,A,]2 | [D,D]3 [D,D] [E,C]2 [F,D]2 | [G,D]2 [G,D]2 [G,D]2[K:treble] [G,DG]2 | %15
 [A,DF]3 [A,F][K:bass] [A,,A,]2 [A,,A,]2 | [D,A,]6 z2 |[M:6/8] [D,D]>D,D, z _FD, | %18
 [D,A,]2 [D,A,D] [E,A,C] .[E,A,C]2 | [A,,A,]>A,,A,, z =D[A,,A,] | %20
[M:11/16] [A,,A,]3/2 z/ [A,,A,][D,A,][D,A,]3/2 |[M:1/8] [D,F,] |[M:3/4] [D,A,]2 [D,D] [E,C]2 F, | %23
 G,2 G, G,2 G, | D,>D, D,C,- C,/C,/D, | A,,>A,, .A,,2 z E | D,>D, .D,2 _FD, | %27
 [D,A,]2 [D,A,D][E,A,C] .[E,A,C]2 | [A,,A,]>A,, .A,,2 =D[A,,A,] | %29
[M:11/16] [A,,A,]3/2 z/ [A,,A,][D,A,][D,A,]3/2 |[M:1/8] [D,F,] | %31
[M:3/4] [D,A,]2 [D,D] [E,C]2 [F,_C] | [G,B,]2 [G,D] [G,D]2[K:treble] [G,DG] | %33
 [A,DF]2 [A,F][K:bass][A,,A,]- [A,,A,]/[A,,A,]/[A,,A,] |[M:9/16] A,>A,B,A,3/2 |] %35
V:3
 x8 | x8 | x8 | x8 | x8 | x8 | x8 | x8 | x8 | x8 | x8 | x8 | x8 | x8 | x8 | z4 .E2 z2 | x8 | %17
[M:6/8] z z/ D/D z =G[DFA] | x6 | z z/ A,/A, z F[EG] |[M:11/16] x11/2 |[M:1/8] x |[M:3/4] x6 | x6 | %24
 x6 | A,>A, A, A2- [GA] | D2 z .D3 | x6 | z z/ A,/ .A,2 F[EG] |[M:11/16] x11/2 |[M:1/8] x | %31
[M:3/4] x6 | x6 | x6 |[M:9/16] F3/2 z3/2 z3/2 |] %35
V:4
 x8 | x8 | x8 | x8 | x8 | x8 | x8 | x8 | x8 | x8 | x8 | x8 | x8 | x8 | x8 | x8 | x8 | %17
[M:6/8] z3 .D3 | x6 | z3 .A,3 |[M:11/16] x11/2 |[M:1/8] x |[M:3/4] x6 | x6 | x6 | x6 | x6 | x6 | %28
 z2 z .A,3 |[M:11/16] x11/2 |[M:1/8] x |[M:3/4] x6 | x6 | x6 |[M:9/16] x9/2 |] %35
V:5
 x8 | x8 | x8 | x8 | x8 | x8 | x8 | x8 | x6[K:treble] x2 | x8 | x8 | x8 | x8 | x8 | %14
 x6[K:treble] x2 | x4[K:bass] x4 | x8 |[M:6/8] z3 .D,3 | x6 | z3 .A,,3 |[M:11/16] x11/2 | %21
[M:1/8] x |[M:3/4] x6 | x6 | x6 | z2 z A,,3 | z2 z .D,3 | x6 | z2 z .A,,3 |[M:11/16] x11/2 | %30
[M:1/8] x |[M:3/4] x6 | x5[K:treble] x | x3[K:bass] x3 |[M:9/16] D,4- D,/ |] %35

